icons/door-open-line.svg

<svg width="24" height="24" fill="none" xmlns="http://www.w3.org/2000/svg"><g clip-path="url(#a)"><path d="M2 21v-2h2V4.835a1 1 0 0 1 .821-.984l9.472-1.722a.599.599 0 0 1 .707.59v1.28L19 4a1 1 0 0 1 1 1v14h2v2h-4V6h-3v15H2ZM13 4.396 6 5.67V19h7V4.396ZM12 11v2h-2v-2h2Z" /></g><defs><clipPath id="a"><path fill="#fff" d="M0 0h24v24H0z"/></clipPath></defs></svg>

<svg xmlns="http://www.w3.org/2000/svg" width="24" height="24" fill="none"><g clip-path="url(#a)"><g><path fill="#121212" d="M2 21V19H4V4.835C4 4.351 4.346 3.937 4.821 3.851L14.293 2.129C14.619 2.069 14.931 2.286 14.99 2.612C14.997 2.647 15 2.682 15 2.719V3.999L19 4C19.552 4 20 4.448 20 5V19H22V21H18V6H15V21H2ZM13 4.396L6 5.67V19H13V4.396ZM12 11V13H10V11H12Z"/></g></g><defs><clipPath id="a"><rect width="24" height="24" fill="white"/></clipPath></defs></svg>
